X:147
T:Cuckow Solo TS.147
M:2/4
L:1/8
Q:1/4=100
S:Thomas Sands’ MS,1810,Lincolnshire
R:air
O:England;Lincolnshire
Z:vmp.Ruairidh Greig, 2011
K:A
A2EG|AA,z A|Bc d(e/d/)|c(B/A/)z e|Ed Ec|EBz f|E/(d/c/d/) E/(d/c/d/)|EBz E|
L:1/16
EFGA B2c2|d2c2 z2B2|ABcd e2f2|g2f2z2 e2|a2(dc) d2b2|d2(cB) c2a2|c2(BA) d2c2|B2A2 e2>d2|
ceee Beee|ceee Beee|dfff cfff|dfff Bfff|Aaaa Baaa|caaa Baaa|Aaaa Baaa|caaa Baaa|
Aagf edcB|ABcd egfe|agag f4|e8::a2gf edcB|A4z4|A2GF EDCB,|A,4z2e2|
eaga eaga|ebab ebab|ec’bc’ ec’bc’|ed’c’d’ ed’c’d’|ee’e’e’ ee’e’e’|ee’e’e’ fe’e’e’|ge’e’e’ fe’e’e’|ee’e’e’ fe’e’e’|
ge’e’e’ fe’e’e’|ee’ee’ fe’fe’|ge’ge’ fe’fe’|ee’e’e fe’fe’|ge’ge’ fe’fe’|ee’fe’ ge’fe’|ee’fe’ ge’fe’|ee’fe’ ge’fe’|
ee’fe’ ge’fe’|e’2d’c’ b2b2|c’2b2z2z2|a2gf g2a2|f2e2z2 e2|ceBe AeBe|ceBe AeBe|ceBe AeBe|
ceBe AeBe|dece BeAe|dece BeAe|dece BeAe|dece BeAe|E6E2|EFGA B2c2|d2c2z2 B2|
ABcd e2f2|g2f2z4|.e4.d4|c2E2 c2d2|.c4.B4|A6E2|EFGA B2c2|d2c2z2 B2|
ABcd .e2.f2|g2f2 z4|.e4.d4|c2E2A2c2|cdefB4|A8|]

